svg/clipboard.svg

<svg width="24" height="24" viewBox="0 0 24 24" fill="none" xmlns="http://www.w3.org/2000/svg">
<path d="M8 3C8 2.44772 8.44772 2 9 2H15C15.5523 2 16 2.44772 16 3H18C19.1046 3 20 3.89543 20 5V20C20 21.1046 19.1046 22 18 22H6C4.89543 22 4 21.1046 4 20V5C4 3.89543 4.89543 3 6 3H8ZM8 5H6V20H18V5H16V6C16 6.55228 15.5523 7 15 7H9C8.44772 7 8 6.55228 8 6V5ZM14 4H10V5H14V4Z" fill="#0D0D0D"/>
</svg>

<svg width="24" height="24" fill="none" xmlns="http://www.w3.org/2000/svg"><path d="M8 3a1 1 0 011-1h6a1 1 0 011 1h2a2 2 0 012 2v15a2 2 0 01-2 2H6a2 2 0 01-2-2V5a2 2 0 012-2h2zm0 2H6v15h12V5h-2v1a1 1 0 01-1 1H9a1 1 0 01-1-1V5zm6-1h-4v1h4V4z" fill="#0D0D0D"/></svg>
